tools/download-figma-icons/icons/outlined-large/virus.svg

<svg xmlns="http://www.w3.org/2000/svg" width="64" height="64" fill="none" viewBox="0 0 64 64"><path fill="currentColor" fill-rule="evenodd" d="M56.555 33.567c.47.593 1.179.933 1.945.933 1.379 0 2.5-1.121 2.5-2.5s-1.121-2.5-2.5-2.5c-.766 0-1.475.34-1.945.933A1.5 1.5 0 0 1 55.38 31H45.5a1.5 1.5 0 0 1 0-3h1.456a15.5 15.5 0 0 0-1.552-3.747l-1.03 1.029a1.5 1.5 0 1 1-2.121-2.121l2.331-2.331.002-.002 4.653-4.653a1.48 1.48 0 0 1 1.233-.43 2.46 2.46 0 0 0 2.033-.716c.474-.472.734-1.1.734-1.767s-.26-1.295-.733-1.768c-.945-.945-2.59-.945-3.535 0a2.46 2.46 0 0 0-.716 2.034c.053.455-.106.91-.43 1.233l-4.651 4.651-.002.002-.002.002-2.331 2.331a1.496 1.496 0 0 1-2.121 0 1.496 1.496 0 0 1 0-2.121l1.029-1.03A15.5 15.5 0 0 0 36 17.044V18.5a1.5 1.5 0 0 1-3 0V8.62a1.5 1.5 0 0 1 .567-1.175c.593-.47.933-1.179.933-1.945C34.5 4.121 33.379 3 32 3a2.5 2.5 0 0 0-2.5 2.5c0 .766.34 1.475.933 1.945A1.5 1.5 0 0 1 31 8.62v9.88a1.5 1.5 0 0 1-3 0v-1.456a15.5 15.5 0 0 0-3.747 1.552l1.029 1.03a1.496 1.496 0 0 1 0 2.121 1.496 1.496 0 0 1-2.121 0l-2.331-2.331-.002-.002-.002-.002-4.651-4.651a1.5 1.5 0 0 1-.43-1.233 2.46 2.46 0 0 0-.716-2.033c-.945-.947-2.59-.946-3.535-.001a2.48 2.48 0 0 0-.733 1.768c0 .667.26 1.295.733 1.767.542.543 1.291.8 2.034.716.457-.057.909.106 1.233.43l4.653 4.653.002.002 2.331 2.331a1.496 1.496 0 0 1 0 2.121 1.5 1.5 0 0 1-2.121 0l-1.03-1.029A15.5 15.5 0 0 0 17.044 28H18.5a1.5 1.5 0 0 1 0 3H8.62a1.5 1.5 0 0 1-1.175-.567A2.47 2.47 0 0 0 5.5 29.5 2.5 2.5 0 0 0 3 32c0 1.379 1.121 2.5 2.5 2.5.766 0 1.475-.34 1.945-.933A1.5 1.5 0 0 1 8.62 33h9.88a1.5 1.5 0 0 1 0 3h-1.456a15.5 15.5 0 0 0 1.552 3.747l1.03-1.029a1.5 1.5 0 1 1 2.121 2.121l-2.331 2.331-.002.002-4.653 4.653a1.49 1.49 0 0 1-1.233.43 2.5 2.5 0 0 0-2.033.716 2.48 2.48 0 0 0-.734 1.767c0 .667.26 1.295.733 1.768.945.945 2.59.945 3.535 0a2.46 2.46 0 0 0 .716-2.034 1.5 1.5 0 0 1 .43-1.233l4.651-4.651.002-.002.002-.002 2.331-2.331a1.5 1.5 0 1 1 2.121 2.121l-1.029 1.03A15.5 15.5 0 0 0 28 46.956V45.5a1.5 1.5 0 0 1 3 0v9.88a1.5 1.5 0 0 1-.567 1.175A2.47 2.47 0 0 0 29.5 58.5c0 1.379 1.121 2.5 2.5 2.5s2.5-1.121 2.5-2.5c0-.766-.34-1.475-.933-1.945A1.5 1.5 0 0 1 33 55.38V45.5a1.5 1.5 0 0 1 3 0v1.456a15.5 15.5 0 0 0 3.747-1.552l-1.029-1.03a1.496 1.496 0 0 1 0-2.121 1.5 1.5 0 0 1 2.121 0l2.331 2.331.002.002.002.002 4.651 4.651c.324.324.483.778.43 1.233a2.46 2.46 0 0 0 .716 2.033c.945.947 2.59.946 3.535.001a2.48 2.48 0 0 0 .733-1.768 2.48 2.48 0 0 0-.733-1.767 2.48 2.48 0 0 0-2.034-.716 1.49 1.49 0 0 1-1.233-.43l-4.653-4.653-.002-.002-2.331-2.331a1.496 1.496 0 0 1 0-2.121 1.5 1.5 0 0 1 2.121 0l1.03 1.029A15.5 15.5 0 0 0 46.956 36H45.5a1.5 1.5 0 0 1 0-3h9.88a1.5 1.5 0 0 1 1.175.567M54.724 28a5.45 5.45 0 0 1 3.776-1.5c3.032 0 5.5 2.468 5.5 5.5s-2.468 5.5-5.5 5.5a5.45 5.45 0 0 1-3.776-1.5h-4.685a18.5 18.5 0 0 1-2.455 5.928l3.312 3.311a5.46 5.46 0 0 1 3.732 1.611 5.47 5.47 0 0 1 1.611 3.888c0 1.469-.573 2.85-1.612 3.889a5.47 5.47 0 0 1-3.889 1.612 5.46 5.46 0 0 1-3.888-1.612 5.45 5.45 0 0 1-1.611-3.731l-3.311-3.312A18.5 18.5 0 0 1 36 50.039v4.685a5.45 5.45 0 0 1 1.5 3.776c0 3.032-2.468 5.5-5.5 5.5a5.507 5.507 0 0 1-5.5-5.5c0-1.426.539-2.766 1.5-3.776v-4.685a18.5 18.5 0 0 1-5.928-2.455l-3.311 3.312a5.46 5.46 0 0 1-1.611 3.732 5.47 5.47 0 0 1-3.888 1.611 5.47 5.47 0 0 1-3.889-1.612 5.47 5.47 0 0 1-1.612-3.889c0-1.468.573-2.849 1.612-3.888a5.45 5.45 0 0 1 3.731-1.611l3.312-3.311A18.5 18.5 0 0 1 13.961 36H9.276A5.45 5.45 0 0 1 5.5 37.5 5.507 5.507 0 0 1 0 32c0-3.032 2.468-5.5 5.5-5.5 1.426 0 2.766.539 3.776 1.5h4.685a18.5 18.5 0 0 1 2.455-5.928l-3.312-3.311a5.46 5.46 0 0 1-3.732-1.611 5.47 5.47 0 0 1-1.611-3.888c0-1.469.573-2.85 1.612-3.889a5.47 5.47 0 0 1 3.889-1.612c1.468 0 2.849.573 3.888 1.612a5.45 5.45 0 0 1 1.611 3.731l3.311 3.312A18.5 18.5 0 0 1 28 13.961V9.276A5.45 5.45 0 0 1 26.5 5.5C26.5 2.468 28.968 0 32 0s5.5 2.468 5.5 5.5A5.45 5.45 0 0 1 36 9.276v4.685c2.1.466 4.112 1.299 5.928 2.455l3.311-3.312a5.46 5.46 0 0 1 1.611-3.732 5.47 5.47 0 0 1 3.888-1.611c1.469 0 2.85.573 3.889 1.612a5.47 5.47 0 0 1 1.612 3.889 5.46 5.46 0 0 1-1.612 3.888 5.45 5.45 0 0 1-3.731 1.611l-3.312 3.311A18.5 18.5 0 0 1 50.039 28zM29 32c0 1.654 1.346 3 3 3s3-1.346 3-3-1.346-3-3-3-3 1.346-3 3m-3 0c0-3.309 2.691-6 6-6s6 2.691 6 6-2.691 6-6 6-6-2.691-6-6" clip-rule="evenodd"/></svg>

<svg width="64" height="64" viewBox="0 0 64 64" fill="none" xmlns="http://www.w3.org/2000/svg">
<path fill-rule="evenodd" clip-rule="evenodd" d="M56.555 33.567C57.025 34.16 57.734 34.5 58.5 34.5C59.879 34.5 61 33.379 61 32C61 30.621 59.879 29.5 58.5 29.5C57.734 29.5 57.025 29.84 56.555 30.433C56.271 30.791 55.838 31 55.38 31H48.799H48.796H45.5C44.672 31 44 30.328 44 29.5C44 28.672 44.672 28 45.5 28H46.956C46.605 26.689 46.083 25.428 45.404 24.253L44.374 25.282C43.788 25.868 42.839 25.868 42.253 25.282C41.96 24.989 41.813 24.605 41.813 24.222C41.813 23.838 41.96 23.454 42.253 23.161L44.584 20.83L44.586 20.828L49.239 16.175C49.562 15.851 50.011 15.688 50.472 15.745C51.222 15.83 51.964 15.572 52.505 15.029C52.979 14.557 53.239 13.929 53.239 13.262C53.239 12.595 52.979 11.967 52.506 11.494C51.561 10.549 49.916 10.549 48.971 11.494C48.429 12.036 48.168 12.776 48.255 13.528C48.308 13.983 48.149 14.438 47.825 14.761L43.174 19.412L43.172 19.414L43.17 19.416L40.839 21.747C40.546 22.04 40.162 22.187 39.778 22.187C39.395 22.187 39.011 22.04 38.718 21.747C38.425 21.454 38.278 21.07 38.278 20.687C38.278 20.303 38.425 19.919 38.718 19.626L39.747 18.596C38.572 17.917 37.311 17.395 36 17.044V18.5C36 19.328 35.328 20 34.5 20C33.672 20 33 19.328 33 18.5V15.204V15.201V8.62C33 8.162 33.209 7.729 33.567 7.445C34.16 6.975 34.5 6.266 34.5 5.5C34.5 4.121 33.379 3 32 3C30.621 3 29.5 4.121 29.5 5.5C29.5 6.266 29.84 6.975 30.433 7.445C30.791 7.729 31 8.162 31 8.62V15.201V15.204V18.5C31 19.328 30.328 20 29.5 20C28.672 20 28 19.328 28 18.5V17.044C26.689 17.395 25.428 17.917 24.253 18.596L25.282 19.626C25.575 19.919 25.722 20.303 25.722 20.687C25.722 21.07 25.575 21.454 25.282 21.747C24.989 22.04 24.605 22.187 24.222 22.187C23.838 22.187 23.454 22.04 23.161 21.747L20.83 19.416L20.828 19.414L20.826 19.412L16.175 14.761C15.851 14.438 15.692 13.983 15.745 13.528C15.832 12.776 15.571 12.036 15.029 11.495C14.084 10.548 12.439 10.549 11.494 11.494C11.021 11.967 10.761 12.595 10.761 13.262C10.761 13.929 11.021 14.557 11.494 15.029C12.036 15.572 12.785 15.829 13.528 15.745C13.985 15.688 14.437 15.851 14.761 16.175L19.414 20.828L19.416 20.83L21.747 23.161C22.04 23.454 22.187 23.838 22.187 24.222C22.187 24.605 22.04 24.989 21.747 25.282C21.161 25.868 20.212 25.868 19.626 25.282L18.596 24.253C17.917 25.428 17.395 26.689 17.044 28H18.5C19.328 28 20 28.672 20 29.5C20 30.328 19.328 31 18.5 31H15.204H15.201H8.62C8.162 31 7.729 30.791 7.445 30.433C6.975 29.84 6.266 29.5 5.5 29.5C4.121 29.5 3 30.621 3 32C3 33.379 4.121 34.5 5.5 34.5C6.266 34.5 6.975 34.16 7.445 33.567C7.729 33.209 8.162 33 8.62 33H15.201H15.204H18.5C19.328 33 20 33.672 20 34.5C20 35.328 19.328 36 18.5 36H17.044C17.395 37.311 17.917 38.572 18.596 39.747L19.626 38.718C20.212 38.132 21.161 38.132 21.747 38.718C22.04 39.011 22.187 39.395 22.187 39.778C22.187 40.162 22.04 40.546 21.747 40.839L19.416 43.17L19.414 43.172L14.761 47.825C14.437 48.148 13.987 48.31 13.528 48.255C12.787 48.174 12.037 48.429 11.495 48.971C11.021 49.443 10.761 50.071 10.761 50.738C10.761 51.405 11.021 52.033 11.494 52.506C12.439 53.451 14.084 53.451 15.029 52.506C15.571 51.964 15.832 51.224 15.745 50.472C15.692 50.017 15.851 49.563 16.175 49.239L20.826 44.588L20.828 44.586L20.83 44.584L23.161 42.253C23.747 41.667 24.696 41.667 25.282 42.253C25.575 42.546 25.722 42.93 25.722 43.313C25.722 43.697 25.575 44.081 25.282 44.374L24.253 45.404C25.428 46.083 26.689 46.605 28 46.956V45.5C28 44.672 28.672 44 29.5 44C30.328 44 31 44.672 31 45.5V48.796V48.799V55.38C31 55.838 30.791 56.271 30.433 56.555C29.84 57.025 29.5 57.734 29.5 58.5C29.5 59.879 30.621 61 32 61C33.379 61 34.5 59.879 34.5 58.5C34.5 57.734 34.16 57.025 33.567 56.555C33.209 56.271 33 55.838 33 55.38V48.799V48.796V45.5C33 44.672 33.672 44 34.5 44C35.328 44 36 44.672 36 45.5V46.956C37.311 46.605 38.572 46.083 39.747 45.404L38.718 44.374C38.425 44.081 38.278 43.697 38.278 43.313C38.278 42.93 38.425 42.546 38.718 42.253C39.304 41.667 40.253 41.667 40.839 42.253L43.17 44.584L43.172 44.586L43.174 44.588L47.825 49.239C48.149 49.563 48.308 50.017 48.255 50.472C48.168 51.224 48.429 51.964 48.971 52.505C49.916 53.452 51.561 53.451 52.506 52.506C52.979 52.033 53.239 51.405 53.239 50.738C53.239 50.071 52.979 49.443 52.506 48.971C51.965 48.428 51.221 48.173 50.472 48.255C50.01 48.309 49.562 48.148 49.239 47.825L44.586 43.172L44.584 43.17L42.253 40.839C41.96 40.546 41.813 40.162 41.813 39.778C41.813 39.395 41.96 39.011 42.253 38.718C42.839 38.132 43.788 38.132 44.374 38.718L45.404 39.747C46.083 38.572 46.605 37.311 46.956 36H45.5C44.672 36 44 35.328 44 34.5C44 33.672 44.672 33 45.5 33H48.796H48.799H55.38C55.838 33 56.271 33.209 56.555 33.567ZM54.724 28C55.734 27.039 57.074 26.5 58.5 26.5C61.532 26.5 64 28.968 64 32C64 35.032 61.532 37.5 58.5 37.5C57.074 37.5 55.734 36.961 54.724 36H50.039C49.573 38.1 48.74 40.112 47.584 41.928L50.896 45.239C52.291 45.274 53.619 45.841 54.628 46.85C55.666 47.889 56.239 49.27 56.239 50.738C56.239 52.207 55.666 53.588 54.627 54.627C53.588 55.666 52.207 56.239 50.738 56.239C49.27 56.239 47.889 55.666 46.85 54.627C45.84 53.619 45.274 52.291 45.239 50.896L41.928 47.584C40.112 48.74 38.1 49.573 36 50.039V54.724C36.961 55.734 37.5 57.074 37.5 58.5C37.5 61.532 35.032 64 32 64C28.968 64 26.5 61.532 26.5 58.5C26.5 57.074 27.039 55.734 28 54.724V50.039C25.9 49.573 23.888 48.74 22.072 47.584L18.761 50.896C18.726 52.291 18.159 53.619 17.15 54.628C16.111 55.666 14.73 56.239 13.262 56.239C11.793 56.239 10.412 55.666 9.373 54.627C8.334 53.588 7.761 52.207 7.761 50.738C7.761 49.27 8.334 47.889 9.373 46.85C10.381 45.841 11.71 45.274 13.104 45.239L16.416 41.928C15.26 40.112 14.427 38.1 13.961 36H9.276C8.266 36.961 6.926 37.5 5.5 37.5C2.468 37.5 0 35.032 0 32C0 28.968 2.468 26.5 5.5 26.5C6.926 26.5 8.266 27.039 9.276 28H13.961C14.427 25.9 15.26 23.888 16.416 22.072L13.104 18.761C11.709 18.726 10.381 18.159 9.372 17.15C8.334 16.111 7.761 14.73 7.761 13.262C7.761 11.793 8.334 10.412 9.373 9.373C10.412 8.334 11.793 7.761 13.262 7.761C14.73 7.761 16.111 8.334 17.15 9.373C18.16 10.381 18.726 11.709 18.761 13.104L22.072 16.416C23.888 15.26 25.9 14.427 28 13.961V9.276C27.039 8.266 26.5 6.926 26.5 5.5C26.5 2.468 28.968 0 32 0C35.032 0 37.5 2.468 37.5 5.5C37.5 6.926 36.961 8.266 36 9.276V13.961C38.1 14.427 40.112 15.26 41.928 16.416L45.239 13.104C45.274 11.709 45.841 10.381 46.85 9.372C47.889 8.334 49.27 7.761 50.738 7.761C52.207 7.761 53.588 8.334 54.627 9.373C55.666 10.412 56.239 11.793 56.239 13.262C56.239 14.73 55.666 16.111 54.627 17.15C53.619 18.159 52.29 18.726 50.896 18.761L47.584 22.072C48.74 23.888 49.573 25.9 50.039 28H54.724ZM29 32C29 33.654 30.346 35 32 35C33.654 35 35 33.654 35 32C35 30.346 33.654 29 32 29C30.346 29 29 30.346 29 32ZM26 32C26 28.691 28.691 26 32 26C35.309 26 38 28.691 38 32C38 35.309 35.309 38 32 38C28.691 38 26 35.309 26 32Z" fill="black"/>
</svg>
